X: 0
T: Toss The Feathers
C: Trad
M: 4/4
L: 1/8
K: Dmix
|:"D"D2 (3DDD AD (3DDD|ABcA "C"GEGE|"D"D2 (3DDD AD (3DDD|d2 ed "C"cAGE|
"D"D2 (3DDD AD (3DDD|ABcA "C"G~E3|cABG "D"A2 AB|1 cded "C"cAGE:|2 "D"cded "C"cAGB||
|:"D"Ad (3ddd Ad (3ddd|Ad (3ddd ed^cd|"A"eaag a2 ag|eaag ed^cd|
efge "D"afge|dfed cAGB|"C"cABG "D"A2 AB|1 cded "C"cAGB:|2 "D"cded "C"cAGE|]